dist/img/mbr2.svg

<svg width="366" height="241" viewBox="0 0 366 241" fill="none" xmlns="http://www.w3.org/2000/svg">
<g clip-path="url(#clip0_955_38123)">
<g filter="url(#filter0_d_955_38123)">
<mask id="mask0_955_38123" style="mask-type:alpha" maskUnits="userSpaceOnUse" x="39" y="1" width="288" height="223">
<path fill-rule="evenodd" clip-rule="evenodd" d="M39.1172 1.30066H326.669V223.201H39.1172V1.30066Z" fill="white"/>
</mask>
<g mask="url(#mask0_955_38123)">
<path fill-rule="evenodd" clip-rule="evenodd" d="M326.669 214.655C326.669 219.384 323.048 223.201 318.596 223.201H47.1869C42.7352 223.201 39.1172 219.384 39.1172 214.655V9.84855C39.1172 5.12006 42.7352 1.29993 47.1869 1.29993H318.596C323.048 1.29993 326.669 5.12006 326.669 9.84855V214.655Z" fill="white"/>
</g>
<mask id="mask1_955_38123" style="mask-type:alpha" maskUnits="userSpaceOnUse" x="3" y="1" width="360" height="235">
<path fill-rule="evenodd" clip-rule="evenodd" d="M3 236H362.778V1.30066H3V236Z" fill="white"/>
</mask>
<g mask="url(#mask1_955_38123)">
<path fill-rule="evenodd" clip-rule="evenodd" d="M52 203.755H313.35V15.9999H52V203.755Z" fill="#191551"/>
<path fill-rule="evenodd" clip-rule="evenodd" d="M3 216.793C4.07251 227.539 14.728 236 27.84 236H337.934C351.053 236 361.701 227.539 362.779 216.793H3Z" fill="#EFEFEF"/>
<path fill-rule="evenodd" clip-rule="evenodd" d="M135.461 223.201H230.316V216.792H135.461V223.201Z" fill="#CCCCCC"/>
</g>
</g>
<path d="M237.341 174.338V177H228.409V174.338H231.533V167.672C231.401 167.848 231.188 168.031 230.895 168.222C230.616 168.398 230.308 168.567 229.971 168.728C229.634 168.889 229.282 169.021 228.915 169.124C228.563 169.227 228.248 169.278 227.969 169.278V166.528C228.233 166.528 228.556 166.447 228.937 166.286C229.318 166.11 229.692 165.905 230.059 165.67C230.426 165.435 230.741 165.208 231.005 164.988C231.284 164.753 231.46 164.57 231.533 164.438H234.547V174.338H237.341ZM250.302 170.554C250.302 171.522 250.155 172.417 249.862 173.238C249.583 174.045 249.187 174.749 248.674 175.35C248.175 175.937 247.574 176.399 246.87 176.736C246.181 177.059 245.433 177.22 244.626 177.22C243.805 177.22 243.049 177.059 242.36 176.736C241.671 176.399 241.069 175.937 240.556 175.35C240.057 174.749 239.661 174.045 239.368 173.238C239.089 172.417 238.95 171.522 238.95 170.554C238.95 169.586 239.089 168.699 239.368 167.892C239.661 167.071 240.057 166.367 240.556 165.78C241.069 165.179 241.671 164.709 242.36 164.372C243.049 164.035 243.805 163.866 244.626 163.866C245.433 163.866 246.181 164.035 246.87 164.372C247.574 164.709 248.175 165.179 248.674 165.78C249.187 166.367 249.583 167.071 249.862 167.892C250.155 168.699 250.302 169.586 250.302 170.554ZM247.332 170.554C247.332 169.967 247.266 169.432 247.134 168.948C247.002 168.449 246.811 168.024 246.562 167.672C246.327 167.32 246.041 167.049 245.704 166.858C245.381 166.667 245.022 166.572 244.626 166.572C244.215 166.572 243.841 166.667 243.504 166.858C243.181 167.049 242.895 167.32 242.646 167.672C242.411 168.024 242.228 168.449 242.096 168.948C241.964 169.432 241.898 169.967 241.898 170.554C241.898 171.141 241.964 171.676 242.096 172.16C242.228 172.644 242.411 173.062 242.646 173.414C242.895 173.766 243.181 174.037 243.504 174.228C243.841 174.419 244.215 174.514 244.626 174.514C245.022 174.514 245.381 174.419 245.704 174.228C246.041 174.037 246.327 173.766 246.562 173.414C246.811 173.062 247.002 172.644 247.134 172.16C247.266 171.676 247.332 171.141 247.332 170.554ZM263.816 170.554C263.816 171.522 263.669 172.417 263.376 173.238C263.097 174.045 262.701 174.749 262.188 175.35C261.689 175.937 261.088 176.399 260.384 176.736C259.694 177.059 258.946 177.22 258.14 177.22C257.318 177.22 256.563 177.059 255.874 176.736C255.184 176.399 254.583 175.937 254.07 175.35C253.571 174.749 253.175 174.045 252.882 173.238C252.603 172.417 252.464 171.522 252.464 170.554C252.464 169.586 252.603 168.699 252.882 167.892C253.175 167.071 253.571 166.367 254.07 165.78C254.583 165.179 255.184 164.709 255.874 164.372C256.563 164.035 257.318 163.866 258.14 163.866C258.946 163.866 259.694 164.035 260.384 164.372C261.088 164.709 261.689 165.179 262.188 165.78C262.701 166.367 263.097 167.071 263.376 167.892C263.669 168.699 263.816 169.586 263.816 170.554ZM260.846 170.554C260.846 169.967 260.78 169.432 260.648 168.948C260.516 168.449 260.325 168.024 260.076 167.672C259.841 167.32 259.555 167.049 259.218 166.858C258.895 166.667 258.536 166.572 258.14 166.572C257.729 166.572 257.355 166.667 257.018 166.858C256.695 167.049 256.409 167.32 256.16 167.672C255.925 168.024 255.742 168.449 255.61 168.948C255.478 169.432 255.412 169.967 255.412 170.554C255.412 171.141 255.478 171.676 255.61 172.16C255.742 172.644 255.925 173.062 256.16 173.414C256.409 173.766 256.695 174.037 257.018 174.228C257.355 174.419 257.729 174.514 258.14 174.514C258.536 174.514 258.895 174.419 259.218 174.228C259.555 174.037 259.841 173.766 260.076 173.414C260.325 173.062 260.516 172.644 260.648 172.16C260.78 171.676 260.846 171.141 260.846 170.554ZM269.299 167.826C268.786 167.826 268.309 167.738 267.869 167.562C267.429 167.386 267.048 167.151 266.725 166.858C266.403 166.55 266.146 166.198 265.955 165.802C265.765 165.391 265.669 164.951 265.669 164.482C265.669 164.027 265.765 163.595 265.955 163.184C266.146 162.773 266.403 162.421 266.725 162.128C267.048 161.835 267.429 161.6 267.869 161.424C268.309 161.248 268.786 161.16 269.299 161.16C269.798 161.16 270.267 161.248 270.707 161.424C271.162 161.6 271.551 161.835 271.873 162.128C272.196 162.421 272.453 162.773 272.643 163.184C272.834 163.595 272.929 164.027 272.929 164.482C272.929 164.951 272.834 165.391 272.643 165.802C272.453 166.198 272.196 166.55 271.873 166.858C271.551 167.151 271.162 167.386 270.707 167.562C270.267 167.738 269.798 167.826 269.299 167.826ZM269.299 166.352C269.519 166.352 269.717 166.301 269.893 166.198C270.084 166.095 270.253 165.963 270.399 165.802C270.546 165.626 270.656 165.428 270.729 165.208C270.817 164.973 270.861 164.731 270.861 164.482C270.861 163.969 270.707 163.536 270.399 163.184C270.091 162.817 269.725 162.634 269.299 162.634C269.079 162.634 268.874 162.685 268.683 162.788C268.507 162.891 268.346 163.03 268.199 163.206C268.053 163.367 267.935 163.558 267.847 163.778C267.774 163.998 267.737 164.233 267.737 164.482C267.737 164.995 267.891 165.435 268.199 165.802C268.507 166.169 268.874 166.352 269.299 166.352ZM277.791 177.22C277.278 177.22 276.801 177.132 276.361 176.956C275.921 176.78 275.54 176.545 275.217 176.252C274.895 175.959 274.638 175.614 274.447 175.218C274.257 174.807 274.161 174.367 274.161 173.898C274.161 173.429 274.257 172.996 274.447 172.6C274.638 172.189 274.895 171.837 275.217 171.544C275.54 171.236 275.921 170.994 276.361 170.818C276.801 170.642 277.278 170.554 277.791 170.554C278.305 170.554 278.781 170.642 279.221 170.818C279.661 170.994 280.043 171.236 280.365 171.544C280.703 171.837 280.959 172.189 281.135 172.6C281.326 172.996 281.421 173.429 281.421 173.898C281.421 174.367 281.326 174.807 281.135 175.218C280.959 175.614 280.703 175.959 280.365 176.252C280.043 176.545 279.661 176.78 279.221 176.956C278.781 177.132 278.305 177.22 277.791 177.22ZM277.791 175.746C278.011 175.746 278.209 175.695 278.385 175.592C278.576 175.489 278.745 175.357 278.891 175.196C279.038 175.02 279.148 174.822 279.221 174.602C279.309 174.382 279.353 174.147 279.353 173.898C279.353 173.634 279.309 173.392 279.221 173.172C279.133 172.937 279.016 172.739 278.869 172.578C278.737 172.402 278.576 172.27 278.385 172.182C278.195 172.079 277.997 172.028 277.791 172.028C277.571 172.028 277.366 172.079 277.175 172.182C276.999 172.285 276.838 172.424 276.691 172.6C276.545 172.761 276.427 172.959 276.339 173.194C276.266 173.414 276.229 173.649 276.229 173.898C276.229 174.411 276.383 174.851 276.691 175.218C276.999 175.57 277.366 175.746 277.791 175.746ZM266.901 175.966L273.105 168.728L278.825 161.204L280.167 162.392L274.161 169.498L268.243 177.154L266.901 175.966Z" fill="white"/>
<path fill-rule="evenodd" clip-rule="evenodd" d="M204.083 164H84.6739V164.012C80.9676 164.142 78 167.217 78 171C78 174.784 80.9676 177.857 84.6739 177.988V178H204.083C207.903 178 211 174.866 211 171C211 167.134 207.903 164 204.083 164Z" fill="#03E59F"/>
<path d="M266 58.0001H95C85.6112 58.0001 78 65.6113 78 75.0001V103C78 112.389 85.6112 120 95 120H266C275.389 120 283 112.389 283 103V75.0001C283 65.6113 275.389 58.0001 266 58.0001Z" fill="white"/>
<path d="M132.422 98.1321L132.129 99C123.522 95.8382 118.925 85.9188 121.911 76.7744C124.898 67.6299 134.267 62.8252 142.874 65.956C149.433 68.3429 153.883 74.8215 154 82.168H153.092C151.775 73.9225 144.397 68.4049 136.609 69.7998C128.821 71.1947 123.61 79.0372 124.956 87.2827C125.688 91.9324 128.47 95.9312 132.422 98.1321Z" fill="url(#paint0_linear_955_38123)"/>
<path d="M152.683 65.7131L152.991 65C165.995 71.1389 171.621 86.7343 165.564 99.8492C159.508 112.964 144.014 118.669 131.01 112.53C121.111 107.879 115.146 97.4619 116.099 86.4862L116.93 86.5792C117.606 99.4772 128.519 109.337 141.308 108.655C154.097 107.972 163.873 96.9658 163.197 84.0679C162.797 76.5957 158.893 69.8057 152.683 65.7131Z" fill="url(#paint1_linear_955_38123)"/>
<path fill-rule="evenodd" clip-rule="evenodd" d="M212.012 65C218.175 65.0164 223.305 68.4076 225.646 73.7061C226.279 75.1364 226.69 76.673 226.869 78.2694C227.003 79.468 227.024 80.2589 226.946 81.3766C226.569 86.7947 223.722 91.5329 219.242 94.9024C219.213 94.924 219.216 94.9651 219.248 94.9826C219.377 95.0539 219.506 95.1251 219.633 95.1973C222.784 96.9652 225.335 98.8105 227.294 100.912C227.429 101.057 227.561 101.203 227.69 101.35C227.711 101.374 227.75 101.374 227.771 101.35C227.898 101.202 228.029 101.054 228.163 100.908C230.101 98.7897 232.634 96.9226 235.766 95.1269C236.931 94.4598 238.13 93.8286 239.503 93.1477C239.713 93.044 239.965 93.1855 239.966 93.4069L240 100.285C240.001 100.407 239.92 100.518 239.797 100.561C234.967 102.266 231.525 106.594 231.343 109.695C231.334 109.85 231.196 109.971 231.03 109.972L224.56 110C224.37 110.001 224.21 109.863 224.198 109.685C223.981 106.671 221.179 103.734 216.02 100.838C215.001 100.267 213.932 99.7147 212.691 99.1127C212.682 99.1085 212.674 99.1039 212.665 99.0996C210.771 98.1263 207.955 97.097 204.384 94.5234C200.202 91.2239 197.535 86.6858 197.124 81.5062C197.036 80.3891 197.048 79.5982 197.17 78.3983C197.333 76.8004 197.73 75.2602 198.348 73.8244C200.636 68.5057 205.732 65.0706 211.895 65.0009L211.924 65.0001L212.012 65ZM202.488 98.1006C203.967 99.2035 205.818 100.237 208.043 101.202C208.375 101.346 208.405 101.749 208.097 101.929C203.757 104.462 201.405 106.985 201.209 109.583C201.193 109.803 200.983 109.974 200.731 109.975L194.484 110C194.212 110.001 193.992 109.806 194 109.569C194.104 106.551 195.508 103.795 197.944 101.311C199.063 100.171 200.375 99.1064 201.882 98.0879C202.061 97.9661 202.315 97.9714 202.488 98.1006ZM211.986 71.5776C208.725 71.6124 206.119 73.3689 204.866 76.2817C204.503 77.1262 204.265 78.0488 204.166 79.0228C204.081 79.8628 204.074 80.2829 204.132 81.0185C204.483 85.4444 207.426 89.2096 212.05 91.44C212.053 91.4411 212.057 91.4431 212.06 91.4449C212.076 91.4521 212.094 91.4524 212.109 91.4448C212.113 91.4428 212.116 91.441 212.12 91.4394C216.721 89.1693 219.626 85.3791 219.934 80.9504C219.985 80.2138 219.974 79.7935 219.88 78.9545C219.771 77.9817 219.524 77.061 219.153 76.2196C217.87 73.318 215.248 71.5839 211.986 71.5776Z" fill="#005FF9"/>
</g>
<defs>
<filter id="filter0_d_955_38123" x="0" y="0.300659" width="365.777" height="240.699" filterUnits="userSpaceOnUse" color-interpolation-filters="sRGB">
<feFlood flood-opacity="0" result="BackgroundImageFix"/>
<feColorMatrix in="SourceAlpha" type="matrix" values="0 0 0 0 0 0 0 0 0 0 0 0 0 0 0 0 0 0 127 0" result="hardAlpha"/>
<feOffset dy="2"/>
<feGaussianBlur stdDeviation="1.5"/>
<feColorMatrix type="matrix" values="0 0 0 0 0 0 0 0 0 0 0 0 0 0 0 0 0 0 0.15 0"/>
<feBlend mode="normal" in2="BackgroundImageFix" result="effect1_dropShadow_955_38123"/>
<feBlend mode="normal" in="SourceGraphic" in2="effect1_dropShadow_955_38123" result="shape"/>
</filter>
<linearGradient id="paint0_linear_955_38123" x1="137.506" y1="64.989" x2="137.506" y2="98.983" gradientUnits="userSpaceOnUse">
<stop stop-color="#7A5FFF"/>
<stop offset="0.609375" stop-color="#927FF1"/>
<stop offset="1" stop-color="#01FF89"/>
</linearGradient>
<linearGradient id="paint1_linear_955_38123" x1="141.999" y1="65.0287" x2="141.999" y2="115.01" gradientUnits="userSpaceOnUse">
<stop stop-color="#7A5FFF"/>
<stop offset="1" stop-color="#01FF89"/>
</linearGradient>
<clipPath id="clip0_955_38123">
<rect width="366" height="241" fill="white"/>
</clipPath>
</defs>
</svg>

<svg width="366" height="241" fill="none" xmlns="http://www.w3.org/2000/svg"><g clip-path="url(#clip0_955_38123)"><g filter="url(#filter0_d_955_38123)"><mask id="mask0_955_38123" style="mask-type:alpha" maskUnits="userSpaceOnUse" x="39" y="1" width="288" height="223"><path fill-rule="evenodd" clip-rule="evenodd" d="M39.117 1.3H326.67v221.901H39.117V1.301z" fill="#fff"/></mask><g mask="url(#mask0_955_38123)"><path fill-rule="evenodd" clip-rule="evenodd" d="M326.669 214.655c0 4.729-3.621 8.546-8.073 8.546H47.186c-4.45 0-8.069-3.817-8.069-8.546V9.849c0-4.729 3.618-8.55 8.07-8.55h271.409c4.452 0 8.073 3.821 8.073 8.55v204.806z" fill="#fff"/></g><mask id="mask1_955_38123" style="mask-type:alpha" maskUnits="userSpaceOnUse" x="3" y="1" width="360" height="235"><path fill-rule="evenodd" clip-rule="evenodd" d="M3 236h359.778V1.3H3V236z" fill="#fff"/></mask><g mask="url(#mask1_955_38123)" fill-rule="evenodd" clip-rule="evenodd"><path d="M52 203.755h261.35V16H52v187.755z" fill="#191551"/><path d="M3 216.793C4.073 227.539 14.728 236 27.84 236h310.094c13.119 0 23.767-8.461 24.845-19.207H3z" fill="#EFEFEF"/><path d="M135.461 223.201h94.855v-6.409h-94.855v6.409z" fill="#CCC"/></g></g><path d="M237.341 174.338V177h-8.932v-2.662h3.124v-6.666c-.132.176-.345.359-.638.55a9.019 9.019 0 01-.924.506 6.55 6.55 0 01-1.056.396 3.406 3.406 0 01-.946.154v-2.75c.264 0 .587-.081.968-.242a9.352 9.352 0 001.122-.616c.367-.235.682-.462.946-.682.279-.235.455-.418.528-.55h3.014v9.9h2.794zm12.961-3.784c0 .968-.147 1.863-.44 2.684a6.473 6.473 0 01-1.188 2.112 5.4 5.4 0 01-1.804 1.386 5.22 5.22 0 01-2.244.484 5.273 5.273 0 01-2.266-.484 5.705 5.705 0 01-1.804-1.386 7.025 7.025 0 01-1.188-2.112c-.279-.821-.418-1.716-.418-2.684 0-.968.139-1.855.418-2.662.293-.821.689-1.525 1.188-2.112a5.576 5.576 0 011.804-1.408 5.09 5.09 0 012.266-.506c.807 0 1.555.169 2.244.506a5.285 5.285 0 011.804 1.408c.513.587.909 1.291 1.188 2.112.293.807.44 1.694.44 2.662zm-2.97 0c0-.587-.066-1.122-.198-1.606a3.928 3.928 0 00-.572-1.276 2.527 2.527 0 00-.858-.814 2.077 2.077 0 00-1.078-.286c-.411 0-.785.095-1.122.286a2.808 2.808 0 00-.858.814 4.23 4.23 0 00-.55 1.276 6.095 6.095 0 00-.198 1.606c0 .587.066 1.122.198 1.606s.315.902.55 1.254c.249.352.535.623.858.814.337.191.711.286 1.122.286.396 0 .755-.095 1.078-.286.337-.191.623-.462.858-.814.249-.352.44-.77.572-1.254a6.095 6.095 0 00.198-1.606zm16.484 0c0 .968-.147 1.863-.44 2.684a6.473 6.473 0 01-1.188 2.112 5.4 5.4 0 01-1.804 1.386 5.226 5.226 0 01-2.244.484 5.27 5.27 0 01-2.266-.484 5.693 5.693 0 01-1.804-1.386 7.025 7.025 0 01-1.188-2.112c-.279-.821-.418-1.716-.418-2.684 0-.968.139-1.855.418-2.662.293-.821.689-1.525 1.188-2.112a5.566 5.566 0 011.804-1.408 5.086 5.086 0 012.266-.506c.806 0 1.554.169 2.244.506a5.285 5.285 0 011.804 1.408c.513.587.909 1.291 1.188 2.112.293.807.44 1.694.44 2.662zm-2.97 0c0-.587-.066-1.122-.198-1.606a3.928 3.928 0 00-.572-1.276 2.527 2.527 0 00-.858-.814 2.077 2.077 0 00-1.078-.286c-.411 0-.785.095-1.122.286a2.808 2.808 0 00-.858.814 4.23 4.23 0 00-.55 1.276 6.095 6.095 0 00-.198 1.606c0 .587.066 1.122.198 1.606s.315.902.55 1.254c.249.352.535.623.858.814.337.191.711.286 1.122.286.396 0 .755-.095 1.078-.286.337-.191.623-.462.858-.814.249-.352.44-.77.572-1.254a6.095 6.095 0 00.198-1.606zm8.453-2.728a3.816 3.816 0 01-2.574-.968 3.64 3.64 0 01-.77-1.056 3.108 3.108 0 01-.286-1.32c0-.455.096-.887.286-1.298a3.28 3.28 0 01.77-1.056 3.816 3.816 0 012.574-.968c.499 0 .968.088 1.408.264a3.69 3.69 0 011.166.704c.323.293.58.645.77 1.056.191.411.286.843.286 1.298 0 .469-.095.909-.286 1.32-.19.396-.447.748-.77 1.056a3.69 3.69 0 01-1.166.704c-.44.176-.909.264-1.408.264zm0-1.474c.22 0 .418-.051.594-.154.191-.103.36-.235.506-.396.147-.176.257-.374.33-.594.088-.235.132-.477.132-.726 0-.513-.154-.946-.462-1.298-.308-.367-.674-.55-1.1-.55-.22 0-.425.051-.616.154a1.85 1.85 0 00-.484.418 1.886 1.886 0 00-.352.572c-.073.22-.11.455-.11.704 0 .513.154.953.462 1.32.308.367.675.55 1.1.55zm8.492 10.868a3.816 3.816 0 01-2.574-.968 3.357 3.357 0 01-.77-1.034 3.108 3.108 0 01-.286-1.32c0-.469.096-.902.286-1.298a3.28 3.28 0 01.77-1.056c.323-.308.704-.55 1.144-.726.44-.176.917-.264 1.43-.264.514 0 .99.088 1.43.264.44.176.822.418 1.144.726.338.293.594.645.77 1.056.191.396.286.829.286 1.298 0 .469-.095.909-.286 1.32a2.93 2.93 0 01-.77 1.034 3.813 3.813 0 01-2.574.968zm0-1.474c.22 0 .418-.051.594-.154.191-.103.36-.235.506-.396.147-.176.257-.374.33-.594a1.88 1.88 0 00.132-.704c0-.264-.044-.506-.132-.726a1.81 1.81 0 00-.352-.594 1.256 1.256 0 00-.484-.396 1.23 1.23 0 00-.594-.154c-.22 0-.425.051-.616.154a1.85 1.85 0 00-.484.418 1.828 1.828 0 00-.352.594c-.073.22-.11.455-.11.704 0 .513.154.953.462 1.32.308.352.675.528 1.1.528zm-10.89.22l6.204-7.238 5.72-7.524 1.342 1.188-6.006 7.106-5.918 7.656-1.342-1.188z" fill="#fff"/><path fill-rule="evenodd" clip-rule="evenodd" d="M204.083 164H84.673v.012C80.969 164.142 78 167.217 78 171c0 3.784 2.968 6.857 6.674 6.988V178h119.409c3.82 0 6.917-3.134 6.917-7s-3.097-7-6.917-7z" fill="#03E59F"/><path d="M266 58H95c-9.389 0-17 7.611-17 17v28c0 9.389 7.611 17 17 17h171c9.389 0 17-7.611 17-17V75c0-9.389-7.611-17-17-17z" fill="#fff"/><path d="M132.422 98.132l-.293.868c-8.607-3.162-13.204-13.081-10.218-22.226 2.987-9.144 12.356-13.949 20.963-10.818 6.559 2.387 11.009 8.865 11.126 16.212h-.908c-1.317-8.246-8.695-13.763-16.483-12.368-7.788 1.395-12.999 9.237-11.653 17.483.732 4.65 3.514 8.648 7.466 10.85z" fill="url(#paint0_linear_955_38123)"/><path d="M152.683 65.713l.308-.713c13.004 6.139 18.63 21.734 12.573 34.85-6.056 13.114-21.55 18.819-34.554 12.68-9.899-4.651-15.864-15.068-14.911-26.044l.831.093c.676 12.898 11.589 22.758 24.378 22.076 12.789-.683 22.565-11.69 21.889-24.587a23.45 23.45 0 00-10.514-18.355z" fill="url(#paint1_linear_955_38123)"/><path fill-rule="evenodd" clip-rule="evenodd" d="M212.012 65c6.163.016 11.293 3.408 13.634 8.706a15.54 15.54 0 011.223 4.563c.134 1.199.155 1.99.077 3.108-.377 5.418-3.224 10.156-7.704 13.525a.047.047 0 00.006.08l.385.215c3.151 1.768 5.702 3.614 7.661 5.715.135.145.267.291.396.438.021.024.06.024.081 0 .127-.148.258-.296.392-.442 1.938-2.118 4.471-3.985 7.603-5.781a69.935 69.935 0 013.737-1.98c.21-.103.462.038.463.26l.034 6.878a.294.294 0 01-.203.276c-4.83 1.705-8.272 6.033-8.454 9.134-.009.155-.147.276-.313.277l-6.47.028c-.19.001-.35-.137-.362-.315-.217-3.014-3.019-5.951-8.178-8.847a62.698 62.698 0 00-3.329-1.725c-.009-.004-.017-.01-.026-.013-1.894-.974-4.71-2.003-8.281-4.577-4.182-3.3-6.849-7.837-7.26-13.017-.088-1.117-.076-1.908.046-3.108.163-1.598.56-3.138 1.178-4.574 2.288-5.318 7.384-8.753 13.547-8.823h.029l.088-.001zm-9.524 33.1c1.479 1.104 3.33 2.137 5.555 3.102.332.144.362.547.054.727-4.34 2.533-6.692 5.056-6.888 7.654-.016.22-.226.391-.478.392l-6.247.025c-.272.001-.492-.194-.484-.431.104-3.018 1.508-5.774 3.944-8.258 1.119-1.14 2.431-2.205 3.938-3.223a.535.535 0 01.606.013zm9.498-26.522c-3.261.034-5.867 1.79-7.12 4.704a9.32 9.32 0 00-.7 2.74c-.085.84-.092 1.26-.034 1.996.351 4.426 3.294 8.192 7.918 10.422a.066.066 0 01.01.005.057.057 0 00.049 0l.011-.006c4.601-2.27 7.506-6.06 7.814-10.489.051-.736.04-1.157-.054-1.996a9.354 9.354 0 00-.727-2.734c-1.283-2.902-3.905-4.636-7.167-4.642z" fill="#005FF9"/></g><defs><linearGradient id="paint0_linear_955_38123" x1="137.506" y1="64.989" x2="137.506" y2="98.983" gradientUnits="userSpaceOnUse"><stop stop-color="#7A5FFF"/><stop offset=".609" stop-color="#927FF1"/><stop offset="1" stop-color="#01FF89"/></linearGradient><linearGradient id="paint1_linear_955_38123" x1="141.999" y1="65.029" x2="141.999" y2="115.01" gradientUnits="userSpaceOnUse"><stop stop-color="#7A5FFF"/><stop offset="1" stop-color="#01FF89"/></linearGradient><clipPath id="clip0_955_38123"><path fill="#fff" d="M0 0h366v241H0z"/></clipPath><filter id="filter0_d_955_38123" x="0" y=".301" width="365.777" height="240.699" filterUnits="userSpaceOnUse" color-interpolation-filters="sRGB"><feFlood flood-opacity="0" result="BackgroundImageFix"/><feColorMatrix in="SourceAlpha" values="0 0 0 0 0 0 0 0 0 0 0 0 0 0 0 0 0 0 127 0" result="hardAlpha"/><feOffset dy="2"/><feGaussianBlur stdDeviation="1.5"/><feColorMatrix values="0 0 0 0 0 0 0 0 0 0 0 0 0 0 0 0 0 0 0.15 0"/><feBlend in2="BackgroundImageFix" result="effect1_dropShadow_955_38123"/><feBlend in="SourceGraphic" in2="effect1_dropShadow_955_38123" result="shape"/></filter></defs></svg>
